X: 1
T: Newsman, The
M: 6/8
L: 1/8
R: jig
K: Gmaj
|:GBd dBd|ece dBG|GBd dcB|ABA AGF|
GBd dBd|ece dBG|GAB cAF|1GAG G2G:|2GAG G2g||
gee fdd|ecc dBG|gee fdd|eAA A2g|
gee fdd|ecc dBG|GAB cAF|1GAG G2G:|2GAG G2g||
